src/images/services-illustrations/icon-other-technologies.svg

<svg width="124" height="124" viewBox="0 0 124 124" xmlns="http://www.w3.org/2000/svg"><title>icon-other-technologies</title><g fill="#36383A" fill-rule="evenodd"><path d="M124 100V0H24L0 24v100h100l24-24zm-4-2V6.828l-20 20V118l20-20zM26 4h91.172l-20 20H6L26 4zM4 28h92v92H4V28z"/><path d="M28 50h12v18H28V50zm6-8h32v8H34v-8zm16 26h16v8H50v-8zm-6 8h12v12H44V76zm0 18h12v12H44V94zm16-44h12v18H60V50zM10 34h8v8h-8zM82 34h8v8h-8zM82 106h8v8h-8zM10 106h8v8h-8z"/></g></svg>

<?xml version="1.0" encoding="UTF-8" standalone="no"?>
<svg width="124px" height="124px" viewBox="0 0 124 124" version="1.1" xmlns="http://www.w3.org/2000/svg" xmlns:xlink="http://www.w3.org/1999/xlink">
    <!-- Generator: Sketch 39.1 (31720) - http://www.bohemiancoding.com/sketch -->
    <title>icon-other-technologies</title>
    <desc>Created with Sketch.</desc>
    <defs></defs>
    <g id="Page-1" stroke="none" stroke-width="1" fill="none" fill-rule="evenodd">
        <g id="images-for-export" transform="translate(-5317.000000, -1130.000000)" fill="#36383A">
            <g id="icon-other-technologies" transform="translate(5317.000000, 1130.000000)">
                <path d="M124,100 L124,2 L124,0 L24,0 L0,24 L0,124 L100,124 L124,100 Z M120,98 L120,6.82842712 L100,26.8284271 L100,118 L120,98 Z M26,4 L117.171573,4 L97.1715729,24 L6,24 L26,4 Z M4,28 L96,28 L96,120 L4,120 L4,28 Z" id="Combined-Shape"></path>
                <path d="M28,50 L40,50 L40,68 L28,68 L28,50 Z M34,42 L66,42 L66,50 L34,50 L34,42 Z M50,68 L66,68 L66,76 L50,76 L50,68 Z M44,76 L56,76 L56,88 L44,88 L44,76 Z M44,94 L56,94 L56,106 L44,106 L44,94 Z M60,50 L72,50 L72,68 L60,68 L60,50 Z" id="Combined-Shape"></path>
                <rect id="Rectangle-27" x="10" y="34" width="8" height="8"></rect>
                <rect id="Rectangle-27" x="82" y="34" width="8" height="8"></rect>
                <rect id="Rectangle-27" x="82" y="106" width="8" height="8"></rect>
                <rect id="Rectangle-27" x="10" y="106" width="8" height="8"></rect>
            </g>
        </g>
    </g>
</svg>
